src/Assets/icons/20-goal/goal-icon.svg

<svg viewBox="0 0 2000 2000" xmlns="http://www.w3.org/2000/svg" xml:space="preserve" style="fill-rule:evenodd;clip-rule:evenodd;stroke-linecap:round;stroke-linejoin:round;stroke-miterlimit:1.5">
    <path d="M1399 457.84c0-25.3-15.18-45.84-33.88-45.84H585.88c-18.699 0-33.88 20.54-33.88 45.84v1054.32c0 25.3 15.181 45.84 33.88 45.84h779.24c18.7 0 33.88-20.54 33.88-45.84V457.84Z" style="fill:#e6e6e6" transform="matrix(2.36128 0 0 1.7452 -1303.42 -719.023)"/>
    <path d="M1880.234 271.772c2.44-20.471-12.195-39.072-32.669-41.513L379.02 55.189c-20.47-2.44-39.072 12.199-41.513 32.67l-101.7 853.095c-2.44 20.474 12.199 39.072 32.67 41.513l1468.545 175.07c20.473 2.44 39.072-12.196 41.512-32.67l101.7-853.095Z"/>
    <path d="M334.563 854.322c1.434-12.03-7.169-22.961-19.199-24.395l-43.594-5.197c-12.03-1.435-22.962 7.168-24.396 19.198L119.65 1915.323c-1.435 12.033 7.168 22.962 19.198 24.396l43.595 5.197c12.03 1.434 22.961-7.166 24.395-19.199L334.563 854.322Z"/>
    <path style="fill:#fff" d="M890 1286h278v278H890z" transform="rotate(6.813 9394.536 5360.02) scale(1.13824)"/>
    <path style="fill:#fff" d="M890 1286h278v278H890z" transform="rotate(6.813 9707.73 40.09) scale(1.13824)"/>
    <path style="fill:#fff" d="M890 1286h278v278H890z" transform="matrix(1.02522 .12248 -.13502 1.1302 -432.922 -1211.324)"/>
    <path style="fill:#fff" d="M890 1286h278v278H890z" transform="matrix(1.1302 .13502 -.12926 1.08197 415.952 -1351.891)"/>
    <path style="fill:#fff" d="M890 1286h278v278H890z" transform="rotate(6.813 12515.873 -2463.787) scale(1.13824)"/>
    <path style="fill:#fff" d="M890 1286h278v278H890z" transform="rotate(6.813 6902.232 2544.108) scale(1.13824)"/>
    <path style="fill:#fff" d="M890 1286h278v278H890z" transform="rotate(6.813 7215.426 -2775.834) scale(1.13824)"/>
    <path d="m250.942 213.698-.722 1840.412c-.005 12.11 9.827 21.95 21.943 21.96l43.903.01c12.115.01 21.955-9.82 21.96-21.94l.371-943.92 1428.493.57c20.62 0 37.36-16.73 37.37-37.34l.34-859.142c0-20.616-16.73-37.36-37.34-37.368l-1478.949-.581c-20.616-.008-37.361 16.723-37.369 37.339Z" style="fill:none;stroke:#e5bd73;stroke-width:45.83px" transform="rotate(6.777 1357.097 881.9)"/>
</svg>

<?xml version="1.0" encoding="UTF-8" standalone="no"?>
<!DOCTYPE svg PUBLIC "-//W3C//DTD SVG 1.1//EN" "http://www.w3.org/Graphics/SVG/1.1/DTD/svg11.dtd">
<svg width="100%" height="100%" viewBox="0 0 2000 2000" version="1.1" xmlns="http://www.w3.org/2000/svg" xmlns:xlink="http://www.w3.org/1999/xlink" xml:space="preserve" xmlns:serif="http://www.serif.com/" style="fill-rule:evenodd;clip-rule:evenodd;stroke-linecap:round;stroke-linejoin:round;stroke-miterlimit:1.5;">
    <g transform="matrix(2.36128,0,0,1.7452,-1303.42,-719.023)">
        <path d="M1399,457.84C1399,432.54 1383.82,412 1365.12,412L585.88,412C567.181,412 552,432.54 552,457.84L552,1512.16C552,1537.46 567.181,1558 585.88,1558L1365.12,1558C1383.82,1558 1399,1537.46 1399,1512.16L1399,457.84Z" style="fill:rgb(230,230,230);"/>
    </g>
    <g transform="matrix(3.85942,0.458553,-0.458553,3.85942,99.8088,-136.754)">
        <g id="lernziel-icon">
            <g>
                <g transform="matrix(0.982073,-0.188501,0.188501,0.982073,-49.8259,63.0781)">
                    <g transform="matrix(0.261006,0.0502045,-0.0502045,0.261006,48.1566,-49.7115)">
                        <path d="M1803,169.16C1803,149.203 1786.8,133 1766.84,133L335.16,133C315.203,133 299,149.203 299,169.16L299,1000.84C299,1020.8 315.203,1037 335.16,1037L1766.84,1037C1786.8,1037 1803,1020.8 1803,1000.84L1803,169.16Z"/>
                    </g>
                    <g transform="matrix(0.261006,0.0502045,-0.0502045,0.261006,48.1566,-49.7115)">
                        <path d="M384,906.25C384,894.522 374.478,885 362.75,885L320.25,885C308.522,885 299,894.522 299,906.25L299,1950.75C299,1962.48 308.522,1972 320.25,1972L362.75,1972C374.478,1972 384,1962.48 384,1950.75L384,906.25Z"/>
                    </g>
                </g>
                <g>
                    <g transform="matrix(0.292865,0.000187929,-0.000187929,0.292865,125.368,-258.401)">
                        <rect x="890" y="1286" width="278" height="278" style="fill:white;"/>
                    </g>
                    <g transform="matrix(0.292865,0.000187929,-0.000187929,0.292865,-37.5697,-258.401)">
                        <rect x="890" y="1286" width="278" height="278" style="fill:white;"/>
                    </g>
                    <g transform="matrix(0.265662,0.000170472,-0.000187929,0.292865,-168.733,-258.38)">
                        <rect x="890" y="1286" width="278" height="278" style="fill:white;"/>
                    </g>
                    <g transform="matrix(0.292865,0.000187929,-0.000179908,0.280367,43.8865,-320.064)">
                        <rect x="890" y="1286" width="278" height="278" style="fill:white;"/>
                    </g>
                    <g transform="matrix(0.292865,0.000187929,-0.000187929,0.292865,-119.039,-339.612)">
                        <rect x="890" y="1286" width="278" height="278" style="fill:white;"/>
                    </g>
                    <g transform="matrix(0.292865,0.000187929,-0.000187929,0.292865,43.8991,-177.271)">
                        <rect x="890" y="1286" width="278" height="278" style="fill:white;"/>
                    </g>
                    <g transform="matrix(0.292865,0.000187929,-0.000187929,0.292865,-119.039,-177.271)">
                        <rect x="890" y="1286" width="278" height="278" style="fill:white;"/>
                    </g>
                </g>
                <g transform="matrix(0.257296,6.93889e-18,-6.93889e-18,0.257296,2.984,-4.81118)">
                    <path d="M250.942,213.698L250.22,2054.11C250.215,2066.22 260.047,2076.06 272.163,2076.07L316.066,2076.08C328.181,2076.09 338.021,2066.26 338.026,2054.14L338.397,1110.22L1766.89,1110.79C1787.51,1110.79 1804.25,1094.06 1804.26,1073.45L1804.6,214.308C1804.6,193.692 1787.87,176.948 1767.26,176.94L288.311,176.359C267.695,176.351 250.95,193.082 250.942,213.698Z" style="fill:none;stroke:rgb(229,189,115);stroke-width:45.83px;"/>
                </g>
            </g>
        </g>
    </g>
</svg>
